assets/img/icons/duotone-icons/Design/Brush.svg

<?xml version="1.0" encoding="UTF-8"?>
<svg width="24px" height="24px" viewBox="0 0 24 24" version="1.1" xmlns="http://www.w3.org/2000/svg" xmlns:xlink="http://www.w3.org/1999/xlink">
    <!-- Generator: Sketch 52.2 (67145) - http://www.bohemiancoding.com/sketch -->
    <title>Stockholm-icons / Design / Brush</title>
    <desc>Created with Sketch.</desc>
    <g id="Stockholm-icons-/-Design-/-Brush" stroke="none" stroke-width="1" fill="none" fill-rule="evenodd">
        <rect id="bound" x="0" y="0" width="24" height="24"></rect>
        <path d="M13.5,6 C13.33743,8.28571429 12.7799545,9.78571429 11.8275735,10.5 C11.8275735,10.5 12.5,4 10.5734853,2 C10.5734853,2 10.5734853,5.92857143 8.78777106,9.14285714 C7.95071887,10.6495511 7.00205677,12.1418252 7.00205677,14.1428571 C7.00205677,17 10.4697177,18 12.0049375,18 C13.8025422,18 17,17 17,13.5 C17,12.0608202 15.8333333,9.56082016 13.5,6 Z" id="Path-17" fill="#335EEA"></path>
        <path d="M9.72075922,20 L14.2792408,20 C14.7096712,20 15.09181,20.2754301 15.2279241,20.6837722 L16,23 L8,23 L8.77207592,20.6837722 C8.90818997,20.2754301 9.29032881,20 9.72075922,20 Z" id="Rectangle-49" fill="#335EEA" opacity="0.3"></path>
    </g>
</svg>

<svg width="24" height="24" viewBox="0 0 24 24" xmlns="http://www.w3.org/2000/svg"><g fill="none" fill-rule="evenodd"><path d="M0 0h24v24H0z"/><path d="M13.5 6c-.163 2.286-.72 3.786-1.672 4.5 0 0 .672-6.5-1.255-8.5 0 0 0 3.929-1.785 7.143-.837 1.507-1.786 2.999-1.786 5C7.002 17 10.47 18 12.005 18 13.803 18 17 17 17 13.5c0-1.44-1.167-3.94-3.5-7.5z" fill="#335EEA"/><path d="M9.72 20h4.56a1 1 0 01.948.684L16 23H8l.772-2.316A1 1 0 019.721 20z" fill="#335EEA" opacity=".3"/></g></svg>
